X: 20783
M: 2/4
L: 1/16
K: C
V: 1 name="3"
[|\
c'2c'2 d'c'ba | g2g2 agfe | d2f2 A2B2 | d4 c2 H|]
e2 |\
d2dd d2e^f | g2g2 ag^fg | a2a2 d'2c'2 | c'bab g2e2 |\
d2dd d2e^f | g2g2 g2ab | bad'a g^fef | g^fag =fe"^D.C."fd |]
"^...."e4 "^...."e4 | "^...."e4 edcB | A^GAB cBcd | e4 E4 |\
"^...."e4 "^...."e4 | "^...."e4 edcB | A^GAB cBcd | A2E2A,2 |]


